assets/images/icons/envelope.svg

<svg width="24" height="24" viewBox="0 0 24 24" fill="none" xmlns="http://www.w3.org/2000/svg">
<g opacity="0.5">
<path d="M21.7491 5.23212C21.7488 5.21825 21.7481 5.20441 21.747 5.19058C21.7461 5.1793 21.745 5.16809 21.7436 5.15696C21.742 5.144 21.74 5.13112 21.7377 5.11823C21.7357 5.10661 21.7334 5.09507 21.7309 5.08365C21.7281 5.07143 21.7249 5.05932 21.7215 5.04723C21.7182 5.03568 21.7149 5.02423 21.7111 5.01292C21.7072 5.00111 21.7028 4.98948 21.6983 4.97786C21.694 4.96674 21.6895 4.95573 21.6847 4.9449C21.6796 4.93346 21.6741 4.92222 21.6684 4.911C21.663 4.90036 21.6574 4.88983 21.6516 4.87949C21.6454 4.8688 21.639 4.85829 21.6324 4.84783C21.6256 4.83728 21.6187 4.82693 21.6115 4.81675C21.6047 4.80716 21.5976 4.79775 21.5903 4.78841C21.5821 4.77791 21.5736 4.76769 21.5648 4.75765C21.5607 4.75291 21.5571 4.74788 21.5529 4.74321C21.5493 4.73928 21.5453 4.73594 21.5416 4.73209C21.5326 4.72261 21.5232 4.71353 21.5137 4.70453C21.5048 4.6962 21.4959 4.68794 21.4868 4.68009C21.4778 4.6724 21.4685 4.66512 21.4591 4.65784C21.4488 4.64987 21.4386 4.64198 21.4281 4.63463C21.4189 4.62825 21.4094 4.62232 21.4 4.61634C21.3888 4.60929 21.3777 4.60227 21.3663 4.59586C21.3563 4.59027 21.346 4.58522 21.3358 4.58009C21.3245 4.57444 21.3133 4.56874 21.3018 4.56368C21.2905 4.55874 21.2791 4.55444 21.2676 4.55004C21.2565 4.54583 21.2455 4.54155 21.2344 4.53789C21.2222 4.53388 21.2098 4.53054 21.1975 4.52715C21.1864 4.52413 21.1753 4.52109 21.1642 4.51859C21.1518 4.51582 21.1392 4.51365 21.1267 4.5115C21.1148 4.50948 21.1029 4.50752 21.091 4.50607C21.0791 4.50463 21.0672 4.50367 21.0552 4.5028C21.0421 4.50184 21.029 4.50108 21.0158 4.50081C21.0105 4.50069 21.0054 4.5 21 4.5H3C2.99496 4.5 2.99011 4.50066 2.98508 4.50076C2.97125 4.50103 2.95743 4.50181 2.94365 4.50284C2.93225 4.50371 2.92094 4.5046 2.90973 4.50595C2.89714 4.50746 2.88464 4.50952 2.8721 4.5117C2.86015 4.51376 2.84821 4.51579 2.83649 4.51842C2.82467 4.52106 2.81305 4.52426 2.80133 4.52747C2.78952 4.53072 2.77771 4.5339 2.76613 4.5377C2.75441 4.54154 2.74288 4.54601 2.73129 4.55045C2.72035 4.55466 2.70937 4.55878 2.69865 4.56347C2.68671 4.56871 2.67503 4.57462 2.66331 4.58052C2.65347 4.58547 2.64362 4.59029 2.63406 4.59565C2.62234 4.60222 2.6109 4.60943 2.59945 4.61669C2.5903 4.6225 2.58105 4.62827 2.57217 4.63447C2.56142 4.64193 2.55102 4.64994 2.54063 4.65804C2.53139 4.66521 2.52223 4.67239 2.51335 4.67999C2.5041 4.68789 2.49518 4.6962 2.48621 4.70464C2.47673 4.71357 2.46744 4.72263 2.45842 4.73204C2.45476 4.73591 2.45073 4.73927 2.44711 4.74321C2.44286 4.74788 2.43928 4.75291 2.43517 4.75765C2.42642 4.7677 2.41791 4.77791 2.40967 4.78841C2.40239 4.79775 2.39529 4.80716 2.38852 4.81675C2.38128 4.82693 2.37437 4.83728 2.36764 4.84783C2.36101 4.85829 2.35455 4.86879 2.34842 4.87948C2.34256 4.88983 2.33702 4.90036 2.33162 4.911C2.32594 4.92221 2.3204 4.93345 2.31528 4.9449C2.31047 4.95572 2.30603 4.96673 2.30173 4.97786C2.29719 4.98948 2.2928 5.00111 2.28886 5.01292C2.28511 5.02423 2.28177 5.03567 2.27852 5.04723C2.27513 5.05932 2.27193 5.07142 2.26913 5.08365C2.26657 5.09507 2.26433 5.1066 2.26227 5.11823C2.25998 5.13112 2.25796 5.144 2.25636 5.15696C2.25499 5.1681 2.25387 5.17931 2.25302 5.19058C2.25192 5.20443 2.25122 5.21827 2.25091 5.23212C2.25078 5.23812 2.25 5.24396 2.25 5.25V18C2.25045 18.3977 2.40864 18.779 2.68984 19.0602C2.97105 19.3414 3.35231 19.4995 3.75 19.5H20.25C20.6477 19.4995 21.029 19.3414 21.3102 19.0602C21.5914 18.779 21.7495 18.3977 21.75 18V5.25C21.75 5.24396 21.7492 5.23812 21.7491 5.23212ZM3.75 6.95496L9.25369 12L3.75 17.0451V6.95496ZM4.92819 18L10.3637 13.0175L11.4932 14.0529C11.6315 14.1797 11.8123 14.25 12 14.25C12.1877 14.25 12.3685 14.1797 12.5068 14.0529L13.6364 13.0175L19.0719 18H4.92819ZM14.7463 12L20.2501 6.95483L20.2509 17.0458L14.7463 12Z" fill="#8EA988"/>
</g>
</svg>

<?xml version="1.0" encoding="utf-8"?>
<!-- Generator: Adobe Illustrator 26.0.1, SVG Export Plug-In . SVG Version: 6.00 Build 0)  -->
<svg version="1.1" id="Слой_1" xmlns="http://www.w3.org/2000/svg" xmlns:xlink="http://www.w3.org/1999/xlink" x="0px" y="0px"
	 viewBox="0 0 24 24" style="enable-background:new 0 0 24 24;" xml:space="preserve">
<style type="text/css">
	.st0{opacity:0.5;}
	.st1{fill:#8EA988;}
</style>
<g class="st0">
	<path class="st1" d="M21.7,5.2C21.7,5.2,21.7,5.2,21.7,5.2C21.7,5.2,21.7,5.2,21.7,5.2c0-0.1,0-0.1,0-0.1c0,0,0,0,0,0c0,0,0,0,0,0
		c0,0,0,0,0,0c0,0,0,0,0,0c0,0,0,0,0,0c0,0,0,0,0,0c0,0,0,0,0,0c0,0,0,0,0,0c0,0,0,0,0,0c0,0,0,0,0,0c0,0,0,0,0,0c0,0,0,0,0,0
		c0,0,0,0,0,0c0,0,0,0,0,0c0,0,0,0,0,0c0,0,0,0,0,0c0,0,0,0,0,0c0,0,0,0,0,0c0,0,0,0,0,0c0,0,0,0,0,0c0,0,0,0,0,0c0,0,0,0,0,0
		c0,0,0,0,0,0c0,0,0,0,0,0c0,0,0,0,0,0c0,0,0,0,0,0c0,0,0,0,0,0c0,0,0,0,0,0c0,0,0,0,0,0c0,0,0,0,0,0H3c0,0,0,0,0,0c0,0,0,0,0,0
		c0,0,0,0,0,0c0,0,0,0,0,0c0,0,0,0,0,0c0,0,0,0,0,0c0,0,0,0,0,0c0,0,0,0,0,0c0,0,0,0,0,0c0,0,0,0,0,0c0,0,0,0,0,0c0,0,0,0,0,0
		c0,0,0,0,0,0c0,0,0,0,0,0c0,0,0,0,0,0c0,0,0,0,0,0c0,0,0,0,0,0c0,0,0,0,0,0c0,0,0,0,0,0c0,0,0,0,0,0c0,0,0,0,0,0c0,0,0,0,0,0
		c0,0,0,0,0,0c0,0,0,0,0,0c0,0,0,0,0,0c0,0,0,0,0,0c0,0,0,0,0,0c0,0,0,0,0,0c0,0,0,0,0,0c0,0,0,0,0,0c0,0,0,0,0,0c0,0,0,0,0,0
		c0,0,0,0,0,0c0,0,0,0,0,0V18c0,0.4,0.2,0.8,0.4,1.1c0.3,0.3,0.7,0.4,1.1,0.4h16.5c0.4,0,0.8-0.2,1.1-0.4s0.4-0.7,0.4-1.1L21.7,5.2
		C21.8,5.2,21.7,5.2,21.7,5.2z M3.8,7l5.5,5l-5.5,5V7z M4.9,18l5.4-5l1.1,1c0.1,0.1,0.3,0.2,0.5,0.2s0.4-0.1,0.5-0.2l1.1-1l5.4,5
		H4.9z M14.7,12l5.5-5l0,10.1L14.7,12z"/>
</g>
</svg>
